src/assets/outline/Brush2.svg

<svg width="24" height="24" viewBox="0 0 24 24"  xmlns="http://www.w3.org/2000/svg">
<path d="M12 22.75C10.21 22.75 8.75 21.29 8.75 19.5V18.75H4.5C3.76 18.75 3.07 18.46 2.55 17.93C2.04 17.43 1.75 16.74 1.75 16C1.75 14.6 2.84 13.4 4.24 13.26C4.29 13.25 4.39 13.25 4.5 13.25H19.5C19.61 13.25 19.71 13.25 19.81 13.27C20.4 13.32 20.99 13.6 21.45 14.07C22.02 14.62 22.31 15.42 22.24 16.24C22.12 17.65 20.87 18.75 19.39 18.75H15.25V19.5C15.25 21.29 13.79 22.75 12 22.75ZM4.5 14.75C4.48 14.75 4.4 14.75 4.38 14.76C3.75 14.82 3.25 15.37 3.25 16C3.25 16.33 3.38 16.64 3.61 16.87C3.85 17.12 4.16 17.25 4.5 17.25H9.5C9.91 17.25 10.25 17.59 10.25 18V19.5C10.25 20.46 11.04 21.25 12 21.25C12.96 21.25 13.75 20.46 13.75 19.5V18C13.75 17.59 14.09 17.25 14.5 17.25H19.39C20.08 17.25 20.69 16.74 20.75 16.11C20.78 15.73 20.65 15.38 20.39 15.12C20.17 14.9 19.91 14.77 19.63 14.75L19.5 14.74H4.5V14.75Z" />
<path d="M19.6901 14.76C19.6501 14.76 19.6101 14.76 19.5701 14.75H4.50014C4.29014 14.79 4.04014 14.73 3.88014 14.59C3.71014 14.46 3.58014 14.26 3.57014 14.05L3.08014 5.34C2.98014 4.32 3.32014 3.27 4.03014 2.48C4.74014 1.7 5.75014 1.25 6.81014 1.25H17.1901C18.2501 1.25 19.2601 1.7 19.9701 2.49C20.6701 3.27 21.0201 4.32 20.9201 5.36L20.4401 14.05C20.4301 14.26 20.3301 14.46 20.1601 14.59C20.0301 14.7 19.8601 14.76 19.6901 14.76ZM5.02014 13.25H18.9801L19.4201 5.26C19.4201 5.25 19.4201 5.24 19.4201 5.22C19.4801 4.58 19.2801 3.96 18.8501 3.49C18.4201 3.02 17.8201 2.75 17.1801 2.75H6.81014C6.18014 2.75 5.57014 3.02 5.14014 3.49C4.71014 3.97 4.51014 4.58 4.58014 5.22L5.02014 13.25Z" />
<path d="M7.99023 7.75C7.58023 7.75 7.24023 7.41 7.24023 7V2C7.24023 1.59 7.58023 1.25 7.99023 1.25C8.40023 1.25 8.74023 1.59 8.74023 2V7C8.74023 7.41 8.40023 7.75 7.99023 7.75Z" />
<path d="M12 4.75C11.59 4.75 11.25 4.41 11.25 4V2C11.25 1.59 11.59 1.25 12 1.25C12.41 1.25 12.75 1.59 12.75 2V4C12.75 4.41 12.41 4.75 12 4.75Z" />
</svg>

<?xml version="1.0" encoding="UTF-8"?>
<svg width="24" height="24" viewBox="0 0 24 24" xmlns="http://www.w3.org/2000/svg">
 <path d="m12 22.75c-1.79 0-3.25-1.46-3.25-3.25v-0.75h-4.25c-0.74 0-1.43-0.29-1.95-0.82-0.51-0.5-0.8-1.19-0.8-1.93 0-1.4 1.09-2.6 2.49-2.74 0.05-0.01 0.15-0.01 0.26-0.01h15c0.11 0 0.21 0 0.31 0.02 0.59 0.05 1.18 0.33 1.64 0.8 0.57 0.55 0.86 1.35 0.79 2.17-0.12 1.41-1.37 2.51-2.85 2.51h-4.14v0.75c0 1.79-1.46 3.25-3.25 3.25zm-7.5-8c-0.02 0-0.1 0-0.12 0.01-0.63 0.06-1.13 0.61-1.13 1.24 0 0.33 0.13 0.64 0.36 0.87 0.24 0.25 0.55 0.38 0.89 0.38h5c0.41 0 0.75 0.34 0.75 0.75v1.5c0 0.96 0.79 1.75 1.75 1.75s1.75-0.79 1.75-1.75v-1.5c0-0.41 0.34-0.75 0.75-0.75h4.89c0.69 0 1.3-0.51 1.36-1.14 0.03-0.38-0.1-0.73-0.36-0.99-0.22-0.22-0.48-0.35-0.76-0.37l-0.13-0.01h-15v0.01z"/>
 <path d="m19.69 14.76c-0.04 0-0.08 0-0.12-0.01h-15.07c-0.21 0.04-0.46-0.02-0.62-0.16-0.17-0.13-0.3-0.33-0.31-0.54l-0.49-8.71c-0.1-1.02 0.24-2.07 0.95-2.86 0.71-0.78 1.72-1.23 2.78-1.23h10.38c1.06 0 2.07 0.45 2.78 1.24 0.7 0.78 1.05 1.83 0.95 2.87l-0.48 8.69c-0.01 0.21-0.11 0.41-0.28 0.54-0.13 0.11-0.3 0.17-0.47 0.17zm-14.67-1.51h13.96l0.44-7.99v-0.04c0.06-0.64-0.14-1.26-0.57-1.73s-1.03-0.74-1.67-0.74h-10.37c-0.63 0-1.24 0.27-1.67 0.74-0.43 0.48-0.63 1.09-0.56 1.73l0.44 8.03z"/>
 <path d="m7.9902 7.75c-0.41 0-0.75-0.34-0.75-0.75v-5c0-0.41 0.34-0.75 0.75-0.75s0.75 0.34 0.75 0.75v5c0 0.41-0.34 0.75-0.75 0.75z"/>
 <path d="m12 4.75c-0.41 0-0.75-0.34-0.75-0.75v-2c0-0.41 0.34-0.75 0.75-0.75s0.75 0.34 0.75 0.75v2c0 0.41-0.34 0.75-0.75 0.75z"/>
</svg>
